X:1
T:Miner's Doom
M:3/4
L:1/4
K:D
 A| d c B| A G F| B A G| F/2 A3/2 z/2 F/2| G E G| F3/2 D/2 F| E D3/2 C/2|\
 D z A/2A/2| d c B| A G F| B A G| F/2 A3/2 z/2 F/2| G E G| F3/2 D/2 F|\
 E D3/2 C/2| D zA/2-A/2| d3/2 B/2 d| c F F3/4 F/4| B e3/2 d/2| c A z/2 A/2|\
 d3/2 B/2 d| c3/2 A/2 c| B- A ^G| A z A3/4 A/4| d c B| A G3/2 F/2|\
 B3/2 A/2 G| F/2 A3/2 z/2 F/4F/4| G E3/2 G/2| F D F| E D3/2 C/2| D z||\
